X: 2297
M: C
L: 1/8
K: Em
e2 |\
(ef) |\
(3gag (3fgf edBc | d2ed Bdd2 |\
[1 (3gag (3fgf edBd | egfd e2 :|\
[2 bgaf gfed | egfd e2 |]


